X: 1
T: Morpeth Lasses, The
M: 4/4
L: 1/8
R: reel
K: Amin
G|ABcB EAAc|BGGd BGGB|ABcB EAAe|dBGB cA{c}AG|
ABcB [E3A,3] c|BAGd BGGB|ABcB EAAe|dBGB cAAe|| 
agea ge~a2|gedg BgGg|agea ge~a2|gegB [A3E3] e|
agea ge~a2|gedg BGdB|AcBd ceda|gegB [A3E3]||
